ix/cloud-minus_bold.svg

<svg viewBox="0 0 24 24" fill="none" xmlns="http://www.w3.org/2000/svg" height="1em" width="1em">
  <path d="M20.17 17.5709C19.64 18.0609 19.03 18.4309 18.37 18.6809C17.71 18.9309 17 18.4509 17 17.7409V16.4209C17 14.4709 15.42 12.8909 13.47 12.8909H10.53C8.58 12.8909 7 14.4709 7 16.4209V18.0009C7 18.5509 6.55 19.0009 6 19.0009H5.55C3.1 18.6309 2 16.6409 2 14.8609C2 13.1809 2.98 11.3209 5.11 10.8009C4.52 8.47091 5.02 6.28091 6.54 4.69091C8.27 2.88091 11.03 2.16091 13.41 2.90091C15.6 3.57091 17.14 5.37091 17.69 7.87091C19.6 8.30091 21.13 9.74091 21.74 11.7409C22.4 13.9109 21.8 16.1409 20.17 17.5709Z" fill="#292D32"/>
  <path d="M13.47 14.3906H10.53C9.26 14.3906 8.5 15.1506 8.5 16.4206V19.3606C8.5 20.6306 9.26 21.3906 10.53 21.3906H13.47C14.74 21.3906 15.5 20.6306 15.5 19.3606V16.4206C15.5 15.1506 14.74 14.3906 13.47 14.3906ZM13.71 18.4606H10.3C9.94 18.4606 9.65 18.1706 9.65 17.8106C9.65 17.4606 9.94 17.1706 10.3 17.1706H13.72C14.07 17.1706 14.36 17.4606 14.36 17.8106C14.35 18.1806 14.06 18.4606 13.71 18.4606Z" fill="#292D32"/>
</svg>

<svg viewBox="0 0 24 24" fill="none" xmlns="http://www.w3.org/2000/svg" height="1em" width="1em">
  <path d="M20.17 17.57c-.53.49-1.14.86-1.8 1.11-.66.25-1.37-.23-1.37-.94v-1.32a3.53 3.53 0 0 0-3.53-3.53h-2.94A3.53 3.53 0 0 0 7 16.42V18c0 .55-.45 1-1 1h-.45C3.1 18.63 2 16.64 2 14.86c0-1.68.98-3.54 3.11-4.06-.59-2.33-.09-4.52 1.43-6.11 1.73-1.81 4.49-2.53 6.87-1.79 2.19.67 3.73 2.47 4.28 4.97 1.91.43 3.44 1.87 4.05 3.87.66 2.17.06 4.4-1.57 5.83Z" fill="#292D32"/>
  <path d="M13.47 14.39h-2.94c-1.27 0-2.03.76-2.03 2.03v2.94c0 1.27.76 2.03 2.03 2.03h2.94c1.27 0 2.03-.76 2.03-2.03v-2.94c0-1.27-.76-2.03-2.03-2.03Zm.24 4.07H10.3c-.36 0-.65-.29-.65-.65 0-.35.29-.64.65-.64h3.42c.35 0 .64.29.64.64-.01.37-.3.65-.65.65Z" fill="#292D32"/>
</svg>
